**kern	**kern
*part1	*part1
*staff2	*staff1
*I"Piano	*
*clefF4	*clefG2
*k[b-e-a-d-]	*k[b-e-a-d-]
=1	=1
*^	*
8rF	2.AAn	4r
4An	.	.
.	.	(4f 4dd-
4A	.	.
.	.	4e-) 4g-X 4cc
8A	.	.
=	=	=
*	*	*^
8r	2.BB-	4r	4ryy
4B-	.	.	.
.	.	(4e- 4cc	2f
4B-	.	.	.
.	.	4d-) 4b-	.
8B-	.	.	.
=	=	=	=
8r	2.BBB-	4r	4ryy
4BB-	.	.	.
.	.	2f 2a-	(4c
4BB-	.	.	.
.	.	.	4B-)
8BB-	.	.	.
*v	*v	*	*
*	*v	*v
=	=
2.r	2.r
=	=
4r	4r
4EE- 4E-	4e-
4r	4r
=	=
4r	4r
4EE- 4E-	4e-
4r	4r
=	=
(4AA- 4A-	8r
.	(4a-
4GG-X 4G-X	.
.	4g-X
4FFn) 4Fn	.
.	8fn)
=	=
(4FF-X 4F-X	8r
.	(4f-X
4EE- 4E-	.
.	4e-
4DDn) 4Dn	.
.	8dn)
=	=
*-	*-
!!!system-decoration: {(s1,s2)}
